src/assets/images/brands/kajabi.svg

<svg height="43" viewBox="0 0 128 43" width="128" xmlns="http://www.w3.org/2000/svg"><path d="m87.206497 36.417305h-6.407425s-.014862-1.828571-.014862-2.393494c-1.665046 1.813702-4.058548 2.943554-7.596756 2.943554-7.492676 0-12.562137-5.827644-12.562137-13.09733 0-7.314285 5.099186-13.097326 12.562137-13.097326 3.523346 0 5.91684 1.174446 7.596756 2.839485v-2.408361h6.422287zm-13.260849-5.232986c3.567948 0 6.689896-2.794888 6.689896-7.314284s-3.121948-7.314285-6.689896-7.314285c-3.746345 0-6.734505 2.75029-6.734505 7.314285.014878 4.54913 2.98816 7.314284 6.734505 7.314284zm-19.147976-22.686177c2.125908 0 3.924744-1.858303 3.924744-4.013939 0-2.170498-1.798836-3.984203-3.924744-3.984203-2.125896 0-4.013935 1.769104-4.013935 3.969337-.014862 2.2151 1.888039 4.028805 4.013935 4.028805zm42.369343 25.525669c0 .906853-.029732 2.438092-.029732 2.438092h-6.481765s0-3.597676 0-5.069451v-29.777469h6.511497v12.071544c1.665039-1.70964 4.118004-2.898956 7.64135-2.898956 7.448074 0 12.517525 5.783045 12.517525 13.09733 0 7.314287-5.00998 13.09733-12.517525 13.09733-3.538216.029732-5.976311-1.100117-7.64135-2.95842zm6.868301-2.794891c3.746331 0 6.734482-2.794891 6.734482-7.314285 0-4.519396-2.988151-7.314286-6.734482-7.314286-3.746353 0-6.689903 2.79489-6.689903 7.314286 0 4.519394 3.121948 7.314285 6.689903 7.314285zm18.746567-30.72892c2.170494 0 3.924744 1.813705 3.924744 3.969337 0 2.170502-1.769112 4.013939-3.924744 4.013939-2.170494 0-4.013939-1.813705-4.013939-4.013939-.014862-2.200233 1.798836-3.969337 4.013939-3.969337zm-3.107086 10.748432h6.556091v21.095471c0 .832519.014862 1.888034.490601 2.75029.40139.728454 1.278511 1.189315 1.278511 1.189315v.163529h-7.106163s-.550049-.327061-.862244-.787918c-.312187-.460862-.356796-.832524-.356796-1.977238 0-1.129849 0-22.433449 0-22.433449zm-67.999073 0h6.556103v27.800232c0 2.111034-1.471783 3.211147-2.36377 3.449013h-6.675022v-.163532s.921711-.40139 1.501507-1.204182c.579792-.802788.981182-2.244827.981182-4.415329zm-9.856445 25.213471h6.511497l-.074333-25.213471h-6.422295v2.408362c-1.679912-1.665039-4.073406-2.839491-7.596752-2.839491-7.462951 0-12.562137 5.783046-12.562137 13.097332 0 7.269684 5.06946 13.097328 12.562137 13.097328 3.538208 0 5.931713-1.129849 7.596752-2.943554 0 .564926-.014869 2.393494-.014869 2.393494zm-26.432519-25.198605h8.087338l-10.361901 10.257839 10.406505 14.970501h-7.641352l-7.195354-10.584902-2.170499 2.1705v8.414402h-6.511497v-34.876655h6.526364v18.731706zm26.313588 12.636469c0 4.519398-3.121952 7.314287-6.689896 7.314287-3.746341 0-6.719629-2.75029-6.734491-7.314287 0-4.563995 2.98815-7.314285 6.734491-7.314285 3.567944 0 6.689896 2.794889 6.689896 7.314285z"/></svg>

<?xml version="1.0" encoding="UTF-8"?>
<!-- Generated by Pixelmator Pro 3.6.14 -->
<svg width="128" height="43" viewBox="0 0 128 43" xmlns="http://www.w3.org/2000/svg">
    <path id="kajabi" fill="#000000" stroke="none" d="M 87.206497 36.417305 L 80.799072 36.417305 C 80.799072 36.417305 80.78421 34.588734 80.78421 34.023811 C 79.119164 35.837513 76.725662 36.967365 73.187454 36.967365 C 65.694778 36.967365 60.625317 31.139721 60.625317 23.870035 L 60.625317 23.870035 C 60.625317 16.55575 65.724503 10.772709 73.187454 10.772709 C 76.7108 10.772709 79.104294 11.947155 80.78421 13.612194 L 80.78421 11.203833 L 87.206497 11.203833 L 87.206497 36.417305 Z M 73.945648 31.184319 C 77.513596 31.184319 80.635544 28.389431 80.635544 23.870035 C 80.635544 19.350639 77.513596 16.55575 73.945648 16.55575 C 70.199303 16.55575 67.211143 19.30604 67.211143 23.870035 C 67.226021 28.419165 70.199303 31.184319 73.945648 31.184319 Z M 54.797672 8.498142 C 56.92358 8.498142 58.722416 6.639839 58.722416 4.484203 C 58.722416 2.313705 56.92358 0.5 54.797672 0.5 C 52.671776 0.5 50.783737 2.269104 50.783737 4.469337 C 50.768875 6.684437 52.671776 8.498142 54.797672 8.498142 Z M 97.167015 34.023811 C 97.167015 34.930664 97.137283 36.461903 97.137283 36.461903 L 90.655518 36.461903 C 90.655518 36.461903 90.655518 32.864227 90.655518 31.392452 L 90.655518 1.614983 L 97.167015 1.614983 L 97.167015 13.686527 C 98.832054 11.976887 101.285019 10.787571 104.808365 10.787571 C 112.256439 10.787571 117.32589 16.570616 117.32589 23.884901 C 117.32589 31.199188 112.31591 36.982231 104.808365 36.982231 C 101.270149 37.011963 98.832054 35.882114 97.167015 34.023811 L 97.167015 34.023811 Z M 104.035316 31.22892 C 107.781647 31.22892 110.769798 28.434029 110.769798 23.914635 C 110.769798 19.395239 107.781647 16.600349 104.035316 16.600349 C 100.288963 16.600349 97.345413 19.395239 97.345413 23.914635 C 97.345413 28.434029 100.467361 31.22892 104.035316 31.22892 Z M 122.781883 0.5 C 124.952377 0.5 126.706627 2.313705 126.706627 4.469337 C 126.706627 6.639839 124.937515 8.483276 122.781883 8.483276 C 120.611389 8.483276 118.767944 6.669571 118.767944 4.469337 C 118.753082 2.269104 120.56678 0.5 122.781883 0.5 Z M 119.674797 11.248432 L 126.230888 11.248432 L 126.230888 32.343903 C 126.230888 33.176422 126.24575 34.231937 126.721489 35.094193 C 127.122879 35.822647 128 36.283508 128 36.283508 L 128 36.447037 L 120.893837 36.447037 C 120.893837 36.447037 120.343788 36.119976 120.031593 35.659119 C 119.719406 35.198257 119.674797 34.826595 119.674797 33.681881 C 119.674797 32.552032 119.674797 11.248432 119.674797 11.248432 Z M 51.675724 11.248432 L 58.231827 11.248432 C 58.231827 11.248432 58.231827 37.502556 58.231827 39.048664 C 58.231827 41.159698 56.760044 42.259811 55.868057 42.497677 L 49.193035 42.497677 L 49.193035 42.334145 C 49.193035 42.334145 50.114746 41.932755 50.694542 41.129963 C 51.274334 40.327175 51.675724 38.885136 51.675724 36.714634 L 51.675724 11.248432 Z M 41.819279 36.461903 L 48.330776 36.461903 L 48.256443 11.248432 L 41.834148 11.248432 L 41.834148 13.656794 C 40.154236 11.991755 37.760742 10.817303 34.237396 10.817303 C 26.774445 10.817303 21.675259 16.600349 21.675259 23.914635 C 21.675259 31.184319 26.744719 37.011963 34.237396 37.011963 C 37.775604 37.011963 40.169109 35.882114 41.834148 34.068409 C 41.834148 34.633335 41.819279 36.461903 41.819279 36.461903 Z M 15.38676 11.263298 L 23.474098 11.263298 L 13.112197 21.521137 L 23.518702 36.491638 L 15.87735 36.491638 L 8.681996 25.906736 L 6.511497 28.077236 L 6.511497 36.491638 L 0 36.491638 L 0 1.614983 L 6.526364 1.614983 L 6.526364 20.346689 L 15.38676 11.263298 Z M 41.700348 23.899767 C 41.700348 28.419165 38.578396 31.214054 35.010452 31.214054 C 31.264111 31.214054 28.290823 28.463764 28.275961 23.899767 C 28.275961 19.335772 31.264111 16.585482 35.010452 16.585482 C 38.578396 16.585482 41.700348 19.380371 41.700348 23.899767 Z"/>
</svg>
